Newaita-dark/apps/16/stremio.svg

<svg height="16" viewBox="0 0 16 16" width="16" xmlns="http://www.w3.org/2000/svg" xmlns:xlink="http://www.w3.org/1999/xlink"><linearGradient id="a"><stop offset="0" stop-opacity=".313726"/><stop offset=".222222" stop-opacity=".27451"/><stop offset="1" stop-opacity="0"/></linearGradient><radialGradient id="b" cx="450.908936" cy="189.579361" gradientTransform="matrix(.00000009 -.0390662 -.0703192 -.00000005 21.103912 31.797666)" gradientUnits="userSpaceOnUse" r="21.166656" xlink:href="#a"/><radialGradient id="c" cx="450.908936" cy="189.579361" gradientTransform="matrix(-.00000009 .0390662 .0703192 .00000005 -5.227395 -3.763739)" gradientUnits="userSpaceOnUse" r="21.166656" xlink:href="#a"/><radialGradient id="d" cx="450.908936" cy="189.579361" gradientTransform="matrix(-.00000009 -.0390662 .0703192 -.00000005 -5.227395 31.797666)" gradientUnits="userSpaceOnUse" r="21.166656" xlink:href="#a"/><radialGradient id="e" cx="450.908936" cy="189.579361" gradientTransform="matrix(.00000009 .0390662 -.0703192 .00000005 21.103911 -3.76374)" gradientUnits="userSpaceOnUse" r="21.166656" xlink:href="#a"/><linearGradient id="f" gradientTransform="matrix(.0220992 -.0220992 .0220992 .0220992 1.842563 12.839699)" gradientUnits="userSpaceOnUse" x1="111.280739" x2="395.655518" y1="164.552521" y2="-119.822243"><stop offset="0" stop-color="#5c6bc0"/><stop offset="1" stop-color="#7986cb"/></linearGradient><linearGradient id="g" gradientTransform="matrix(.0220992 -.0220992 .0220992 .0220992 1.842564 12.839699)" gradientUnits="userSpaceOnUse" x1="111.280739" x2="395.655518" y1="164.552521" y2="-119.822243"><stop offset="0" stop-color="#7e57c2"/><stop offset="1" stop-color="#9575cd"/></linearGradient><linearGradient id="h" gradientUnits="userSpaceOnUse" x1="7.950036" x2="7.950036" y1="10.215927875" y2="5.25451450003"><stop offset="0" stop-color="#e0e0e0"/><stop offset="1" stop-color="#f5f5f5"/></linearGradient><path d="m7.9375 14.015625h1.324219v-.660156h-1.324219zm0 0" fill="url(#b)"/><path d="m7.9375 14.015625h-1.324219v.664063h1.324219zm0 0" fill="url(#c)"/><path d="m7.9375 14.015625h-1.324219v-.660156h1.324219zm0 0" fill="url(#d)"/><path d="m7.9375 14.015625h1.324219v.664063h-1.324219zm0 0" fill="url(#e)"/><path d="m1.855469 7.242188 5.613281-5.613282c.261719-.257812.679688-.257812.9375 0l5.613281 5.613282c.257813.257812.257813.675781 0 .933593l-5.613281 5.613281c-.257812.257813-.675781.257813-.9375 0l-5.613281-5.613281c-.257813-.257812-.257813-.675781 0-.933593zm0 0" fill="url(#f)"/><path d="m7.9375 1.433594c-.167969 0-.335938.066406-.46875.195312l-5.613281 5.613282c-.132813.132812-.199219.3125-.191407.492187h12.550782c.003906-.179687-.058594-.359375-.195313-.492187l-5.613281-5.613282c-.128906-.128906-.300781-.195312-.46875-.195312zm0 0" fill="url(#g)"/><path d="m7.9375 1.433594c-.167969 0-.335938.066406-.46875.195312l-5.613281 5.613282c-.152344.15625-.214844.367187-.183594.570312.019531-.132812.082031-.261719.183594-.367188l5.613281-5.613281c.261719-.257812.679688-.257812.9375 0l5.613281 5.613281c.101563.105469.164063.234376.1875.367188.03125-.203125-.03125-.414062-.1875-.570312l-5.613281-5.613282c-.128906-.128906-.300781-.195312-.46875-.195312zm0 0" fill="#fff" fill-opacity=".392157"/><path d="m7.9375 13.984375c-.167969 0-.335938-.066406-.46875-.195313l-5.613281-5.613281c-.152344-.15625-.214844-.367187-.183594-.570312.019531.132812.082031.261719.183594.367187l5.613281 5.613282c.261719.257812.679688.257812.9375 0l5.613281-5.613282c.101563-.105468.164063-.234375.1875-.367187.03125.203125-.03125.414062-.1875.570312l-5.613281 5.613281c-.128906.128907-.300781.195313-.46875.195313zm0 0" fill-opacity=".235294"/><path d="m959.908384 173.36928c-20.313022 0-40.626044 8.03073-56.687503 23.619793l-678.832848 678.832848c-16.06146 16.061459-24.092189 37.791669-23.147397 59.521878h1517.807892c.472396-21.730209-7.085938-43.460419-23.619793-59.521878l-678.832848-678.832848c-15.589064-15.589063-36.374481-23.619793-56.687503-23.619793zm0 0" fill="none" stroke="#212121" stroke-linecap="round" stroke-width="11.338583" transform="scale(.00826902)"/><path d="m1.824219 7.207031c-.277344.277344-.277344.726563 0 1.003907l5.613281 5.613281c.277344.277343.726562.277343 1 0l5.613281-5.613281c.277344-.277344.277344-.726563 0-1.003907l-5.613281-5.613281c-.273438-.277344-.722656-.277344-1 0zm.066406.066407 5.613281-5.613282c.242188-.242187.628906-.242187.867188 0l5.613281 5.613282c.242187.242187.242187.628906 0 .871093l-5.613281 5.613281c-.238282.242188-.625.242188-.867188 0l-5.613281-5.613281c-.242187-.242187-.242187-.628906 0-.871093zm0 0" fill="#212121"/><path d="m6.636719 5.257812c-.183594-.007812-.339844.140626-.339844.328126v4.300781c0 .253906.277344.410156.496094.28125l3.640625-2.148438c.214844-.128906.214844-.441406 0-.566406l-3.640625-2.152344c-.046875-.027343-.101563-.042969-.15625-.042969zm0 0" fill="url(#h)"/><path d="m6.621094 5.257812c-.179688 0-.324219.148438-.324219.328126v.164062c0-.1875.15625-.335938.339844-.332031.054687.003906.109375.019531.15625.046875l3.640625 2.152344c.078125.046874.128906.121093.152344.199218.03125-.132812-.019532-.285156-.152344-.363281l-3.640625-2.152344c-.046875-.027343-.101563-.042969-.15625-.042969-.003907 0-.011719 0-.015625 0zm0 0" fill="#fff" fill-opacity=".588235"/><path d="m10.550781 7.898438c-.027343.046874-.066406.085937-.117187.117187l-3.640625 2.148437c-.21875.132813-.496094-.027343-.496094-.28125v.332032c0 .253906.277344.410156.496094.28125l3.640625-2.148438c.164062-.097656.203125-.300781.117187-.449218zm0 0" fill-opacity=".235294"/><path d="m6.621094 10.214844c-.179688-.003906-.324219-.148438-.324219-.328125v-.164063c0 .1875.15625.335938.339844.328125.054687 0 .109375-.015625.15625-.042969l3.640625-2.152343c.078125-.046875.128906-.121094.152344-.199219.03125.132812-.019532.285156-.152344.363281l-3.640625 2.152344c-.046875.027344-.101563.042969-.15625.042969-.003907 0-.011719 0-.015625 0zm0 0" fill-opacity=".235294"/><path d="m6.640625 5.210938c-.210937-.007813-.390625.164062-.390625.375v4.300781c0 .289062.320312.46875.566406.320312l3.640625-2.148437c.242188-.144532.242188-.503906 0-.648438l-3.640625-2.148437c-.050781-.03125-.113281-.050781-.175781-.050781zm-.003906.09375c.046875 0 .09375.011718.132812.039062l3.640625 2.148438c.183594.109374.183594.375 0 .484374l-3.640625 2.152344c-.1875.113282-.425781-.023437-.425781-.242187v-4.300781c0-.160157.132812-.289063.292969-.28125zm0 0" fill="#212121"/></svg>

<?xml version="1.0" encoding="UTF-8"?>
<svg xmlns="http://www.w3.org/2000/svg" xmlns:xlink="http://www.w3.org/1999/xlink" width="16px" height="16px" viewBox="0 0 16 16" version="1.1">
<defs>
<radialGradient id="radial0" gradientUnits="userSpaceOnUse" cx="450.908936" cy="189.579361" fx="450.908936" fy="189.579361" r="21.166656" gradientTransform="matrix(0.0000000870852,-0.0390662,-0.0703192,-0.0000000507693,21.103912,31.797666)">
<stop offset="0" style="stop-color:rgb(0%,0%,0%);stop-opacity:0.313726;"/>
<stop offset="0.222222" style="stop-color:rgb(0%,0%,0%);stop-opacity:0.27451;"/>
<stop offset="1" style="stop-color:rgb(0%,0%,0%);stop-opacity:0;"/>
</radialGradient>
<radialGradient id="radial1" gradientUnits="userSpaceOnUse" cx="450.908936" cy="189.579361" fx="450.908936" fy="189.579361" r="21.166656" gradientTransform="matrix(-0.0000000870852,0.0390662,0.0703192,0.0000000507693,-5.227395,-3.763739)">
<stop offset="0" style="stop-color:rgb(0%,0%,0%);stop-opacity:0.313726;"/>
<stop offset="0.222222" style="stop-color:rgb(0%,0%,0%);stop-opacity:0.27451;"/>
<stop offset="1" style="stop-color:rgb(0%,0%,0%);stop-opacity:0;"/>
</radialGradient>
<radialGradient id="radial2" gradientUnits="userSpaceOnUse" cx="450.908936" cy="189.579361" fx="450.908936" fy="189.579361" r="21.166656" gradientTransform="matrix(-0.0000000870852,-0.0390662,0.0703192,-0.0000000507693,-5.227395,31.797666)">
<stop offset="0" style="stop-color:rgb(0%,0%,0%);stop-opacity:0.313726;"/>
<stop offset="0.222222" style="stop-color:rgb(0%,0%,0%);stop-opacity:0.27451;"/>
<stop offset="1" style="stop-color:rgb(0%,0%,0%);stop-opacity:0;"/>
</radialGradient>
<radialGradient id="radial3" gradientUnits="userSpaceOnUse" cx="450.908936" cy="189.579361" fx="450.908936" fy="189.579361" r="21.166656" gradientTransform="matrix(0.0000000870852,0.0390662,-0.0703192,0.0000000507693,21.103911,-3.76374)">
<stop offset="0" style="stop-color:rgb(0%,0%,0%);stop-opacity:0.313726;"/>
<stop offset="0.222222" style="stop-color:rgb(0%,0%,0%);stop-opacity:0.27451;"/>
<stop offset="1" style="stop-color:rgb(0%,0%,0%);stop-opacity:0;"/>
</radialGradient>
<linearGradient id="linear0" gradientUnits="userSpaceOnUse" x1="111.280739" y1="164.552521" x2="395.655518" y2="-119.822243" gradientTransform="matrix(0.0220992,-0.0220992,0.0220992,0.0220992,1.842563,12.839699)">
<stop offset="0" style="stop-color:rgb(36.078432%,41.960785%,75.294119%);stop-opacity:1;"/>
<stop offset="1" style="stop-color:rgb(47.450981%,52.549022%,79.607844%);stop-opacity:1;"/>
</linearGradient>
<linearGradient id="linear1" gradientUnits="userSpaceOnUse" x1="111.280739" y1="164.552521" x2="395.655518" y2="-119.822243" gradientTransform="matrix(0.0220992,-0.0220992,0.0220992,0.0220992,1.842564,12.839699)">
<stop offset="0" style="stop-color:rgb(49.411765%,34.117648%,76.078433%);stop-opacity:1;"/>
<stop offset="1" style="stop-color:rgb(58.431375%,45.882353%,80.392158%);stop-opacity:1;"/>
</linearGradient>
<linearGradient id="linear2" gradientUnits="userSpaceOnUse" x1="254" y1="53.583332" x2="254" y2="-105.166656" gradientTransform="matrix(0.031253,0,0,0.031253,0.0117736,8.541288)">
<stop offset="0" style="stop-color:rgb(87.843138%,87.843138%,87.843138%);stop-opacity:1;"/>
<stop offset="1" style="stop-color:rgb(96.078432%,96.078432%,96.078432%);stop-opacity:1;"/>
</linearGradient>
</defs>
<g id="surface1">
<path style=" stroke:none;fill-rule:nonzero;fill:url(#radial0);" d="M 7.9375 14.015625 L 9.261719 14.015625 L 9.261719 13.355469 L 7.9375 13.355469 Z M 7.9375 14.015625 "/>
<path style=" stroke:none;fill-rule:nonzero;fill:url(#radial1);" d="M 7.9375 14.015625 L 6.613281 14.015625 L 6.613281 14.679688 L 7.9375 14.679688 Z M 7.9375 14.015625 "/>
<path style=" stroke:none;fill-rule:nonzero;fill:url(#radial2);" d="M 7.9375 14.015625 L 6.613281 14.015625 L 6.613281 13.355469 L 7.9375 13.355469 Z M 7.9375 14.015625 "/>
<path style=" stroke:none;fill-rule:nonzero;fill:url(#radial3);" d="M 7.9375 14.015625 L 9.261719 14.015625 L 9.261719 14.679688 L 7.9375 14.679688 Z M 7.9375 14.015625 "/>
<path style=" stroke:none;fill-rule:nonzero;fill:url(#linear0);" d="M 1.855469 7.242188 L 7.46875 1.628906 C 7.730469 1.371094 8.148438 1.371094 8.40625 1.628906 L 14.019531 7.242188 C 14.277344 7.5 14.277344 7.917969 14.019531 8.175781 L 8.40625 13.789062 C 8.148438 14.046875 7.730469 14.046875 7.46875 13.789062 L 1.855469 8.175781 C 1.597656 7.917969 1.597656 7.5 1.855469 7.242188 Z M 1.855469 7.242188 "/>
<path style=" stroke:none;fill-rule:nonzero;fill:url(#linear1);" d="M 7.9375 1.433594 C 7.769531 1.433594 7.601562 1.5 7.46875 1.628906 L 1.855469 7.242188 C 1.722656 7.375 1.65625 7.554688 1.664062 7.734375 L 14.214844 7.734375 C 14.21875 7.554688 14.15625 7.375 14.019531 7.242188 L 8.40625 1.628906 C 8.277344 1.5 8.105469 1.433594 7.9375 1.433594 Z M 7.9375 1.433594 "/>
<path style=" stroke:none;fill-rule:nonzero;fill:rgb(100%,100%,100%);fill-opacity:0.392157;" d="M 7.9375 1.433594 C 7.769531 1.433594 7.601562 1.5 7.46875 1.628906 L 1.855469 7.242188 C 1.703125 7.398438 1.640625 7.609375 1.671875 7.8125 C 1.691406 7.679688 1.753906 7.550781 1.855469 7.445312 L 7.46875 1.832031 C 7.730469 1.574219 8.148438 1.574219 8.40625 1.832031 L 14.019531 7.445312 C 14.121094 7.550781 14.183594 7.679688 14.207031 7.8125 C 14.238281 7.609375 14.175781 7.398438 14.019531 7.242188 L 8.40625 1.628906 C 8.277344 1.5 8.105469 1.433594 7.9375 1.433594 Z M 7.9375 1.433594 "/>
<path style=" stroke:none;fill-rule:nonzero;fill:rgb(0%,0%,0%);fill-opacity:0.235294;" d="M 7.9375 13.984375 C 7.769531 13.984375 7.601562 13.917969 7.46875 13.789062 L 1.855469 8.175781 C 1.703125 8.019531 1.640625 7.808594 1.671875 7.605469 C 1.691406 7.738281 1.753906 7.867188 1.855469 7.972656 L 7.46875 13.585938 C 7.730469 13.84375 8.148438 13.84375 8.40625 13.585938 L 14.019531 7.972656 C 14.121094 7.867188 14.183594 7.738281 14.207031 7.605469 C 14.238281 7.808594 14.175781 8.019531 14.019531 8.175781 L 8.40625 13.789062 C 8.277344 13.917969 8.105469 13.984375 7.9375 13.984375 Z M 7.9375 13.984375 "/>
<path style="fill:none;stroke-width:11.338583;stroke-linecap:round;stroke-linejoin:miter;stroke:rgb(12.941177%,12.941177%,12.941177%);stroke-opacity:1;stroke-miterlimit:4;" d="M 959.908384 173.36928 C 939.595362 173.36928 919.28234 181.40001 903.220881 196.989073 L 224.388033 875.821921 C 208.326573 891.88338 200.295844 913.61359 201.240636 935.343799 L 1719.048528 935.343799 C 1719.520924 913.61359 1711.96259 891.88338 1695.428735 875.821921 L 1016.595887 196.989073 C 1001.006823 181.40001 980.221406 173.36928 959.908384 173.36928 Z M 959.908384 173.36928 " transform="matrix(0.00826902,0,0,0.00826902,0,0)"/>
<path style=" stroke:none;fill-rule:nonzero;fill:rgb(12.941177%,12.941177%,12.941177%);fill-opacity:1;" d="M 1.824219 7.207031 C 1.546875 7.484375 1.546875 7.933594 1.824219 8.210938 L 7.4375 13.824219 C 7.714844 14.101562 8.164062 14.101562 8.4375 13.824219 L 14.050781 8.210938 C 14.328125 7.933594 14.328125 7.484375 14.050781 7.207031 L 8.4375 1.59375 C 8.164062 1.316406 7.714844 1.316406 7.4375 1.59375 Z M 1.890625 7.273438 L 7.503906 1.660156 C 7.746094 1.417969 8.132812 1.417969 8.371094 1.660156 L 13.984375 7.273438 C 14.226562 7.515625 14.226562 7.902344 13.984375 8.144531 L 8.371094 13.757812 C 8.132812 14 7.746094 14 7.503906 13.757812 L 1.890625 8.144531 C 1.648438 7.902344 1.648438 7.515625 1.890625 7.273438 Z M 1.890625 7.273438 "/>
<path style=" stroke:none;fill-rule:nonzero;fill:url(#linear2);" d="M 6.636719 5.257812 C 6.453125 5.25 6.296875 5.398438 6.296875 5.585938 L 6.296875 9.886719 C 6.296875 10.140625 6.574219 10.296875 6.792969 10.167969 L 10.433594 8.019531 C 10.648438 7.890625 10.648438 7.578125 10.433594 7.453125 L 6.792969 5.300781 C 6.746094 5.273438 6.691406 5.257812 6.636719 5.257812 Z M 6.636719 5.257812 "/>
<path style=" stroke:none;fill-rule:nonzero;fill:rgb(100%,100%,100%);fill-opacity:0.588235;" d="M 6.621094 5.257812 C 6.441406 5.257812 6.296875 5.40625 6.296875 5.585938 L 6.296875 5.75 C 6.296875 5.5625 6.453125 5.414062 6.636719 5.417969 C 6.691406 5.421875 6.746094 5.4375 6.792969 5.464844 L 10.433594 7.617188 C 10.511719 7.664062 10.5625 7.738281 10.585938 7.816406 C 10.617188 7.683594 10.566406 7.53125 10.433594 7.453125 L 6.792969 5.300781 C 6.746094 5.273438 6.691406 5.257812 6.636719 5.257812 C 6.632812 5.257812 6.625 5.257812 6.621094 5.257812 Z M 6.621094 5.257812 "/>
<path style=" stroke:none;fill-rule:nonzero;fill:rgb(0%,0%,0%);fill-opacity:0.235294;" d="M 10.550781 7.898438 C 10.523438 7.945312 10.484375 7.984375 10.433594 8.015625 L 6.792969 10.164062 C 6.574219 10.296875 6.296875 10.136719 6.296875 9.882812 L 6.296875 10.214844 C 6.296875 10.46875 6.574219 10.625 6.792969 10.496094 L 10.433594 8.347656 C 10.597656 8.25 10.636719 8.046875 10.550781 7.898438 Z M 10.550781 7.898438 "/>
<path style=" stroke:none;fill-rule:nonzero;fill:rgb(0%,0%,0%);fill-opacity:0.235294;" d="M 6.621094 10.214844 C 6.441406 10.210938 6.296875 10.066406 6.296875 9.886719 L 6.296875 9.722656 C 6.296875 9.910156 6.453125 10.058594 6.636719 10.050781 C 6.691406 10.050781 6.746094 10.035156 6.792969 10.007812 L 10.433594 7.855469 C 10.511719 7.808594 10.5625 7.734375 10.585938 7.65625 C 10.617188 7.789062 10.566406 7.941406 10.433594 8.019531 L 6.792969 10.171875 C 6.746094 10.199219 6.691406 10.214844 6.636719 10.214844 C 6.632812 10.214844 6.625 10.214844 6.621094 10.214844 Z M 6.621094 10.214844 "/>
<path style=" stroke:none;fill-rule:nonzero;fill:rgb(12.941177%,12.941177%,12.941177%);fill-opacity:1;" d="M 6.640625 5.210938 C 6.429688 5.203125 6.25 5.375 6.25 5.585938 L 6.25 9.886719 C 6.25 10.175781 6.570312 10.355469 6.816406 10.207031 L 10.457031 8.058594 C 10.699219 7.914062 10.699219 7.554688 10.457031 7.410156 L 6.816406 5.261719 C 6.765625 5.230469 6.703125 5.210938 6.640625 5.210938 Z M 6.636719 5.304688 C 6.683594 5.304688 6.730469 5.316406 6.769531 5.34375 L 10.410156 7.492188 C 10.59375 7.601562 10.59375 7.867188 10.410156 7.976562 L 6.769531 10.128906 C 6.582031 10.242188 6.34375 10.105469 6.34375 9.886719 L 6.34375 5.585938 C 6.34375 5.425781 6.476562 5.296875 6.636719 5.304688 Z M 6.636719 5.304688 "/>
</g>
</svg>
